X:52
T:College Hornpipe, The 
C:Joe Buchanan's Scottish Tome - Page 238.2
I:238 2
R:Hornpipe
Z:Carl Allison
U:T=!tenuto!
L:1/8
M:4/4
K:Bb
dc | B2 T.B,2T.B,2 FE | DF T.B2 T.B2 dB | c2 .C2 .C2 cB | Ac T.f2 T.f2 ga |
(ba).g.f (gf).e.d | (ed).c.B (BA).G.F | GBAc Bdce | d z [DB]2 [DB]2 :|
FE | DFBF DFBF | G2 E2 E2 GF | =EGcG EGcG | A2 F2 F2 GA |
B z (g g).f.ed | edcB BAGF | GBAc Bdce | d2 B2 [DB]2 :|

